symbolic/24x24/apps/rocket-league.svg

<svg xmlns="http://www.w3.org/2000/svg" width="24" height="24" version="1">
 <path style="opacity:0.2" d="M 11.25663,2.5 C 10.205868,2.5008151 9.1530628,2.5599925 8.163638,2.6914062 6.7000236,2.8858019 5.3362371,3.2211243 4.0968918,3.7441406 3.7071886,3.9085997 3.3534449,4.0846939 3.0216628,4.2675781 2.0221353,4.8176356 1.5001911,5.4597818 1.2478278,6.09375 1.0331365,6.6461795 1.0878667,6.6522416 1.074152,6.7402344 1.060437,6.8282274 1.055612,6.8779239 1.050735,6.9238281 1.040985,7.0156361 1.036237,7.0820067 1.031221,7.1542969 1.02119,7.2988771 1.013647,7.4517686 1.007805,7.6171875 L 1,7.8574219 1.0292712,8.0957031 c 0.073091,0.5837135 0.1635714,1.1574961 0.2673437,1.7246094 0.7896691,3.0607495 2.4037378,6.7321515 4.0491826,8.7499955 0.6380924,0.753913 1.0879157,1.216905 1.9455595,1.876954 0.8203721,0.631365 1.6376317,1.123531 2.6441656,1.599609 0.1088654,0.05149 0.2070444,0.09697 0.2946644,0.136719 0.04381,0.01988 0.08207,0.03794 0.134648,0.06055 0.02629,0.01131 0.05252,0.02114 0.113181,0.04492 0.03033,0.01189 0.06671,0.02611 0.15221,0.05469 0.04275,0.01429 0.09416,0.03295 0.200996,0.06055 0.05342,0.0138 0.226159,0.04879 0.226364,0.04883 2.04e-4,3.6e-5 0.524802,0.04687 0.524931,0.04687 6.32e-4,0 0.537053,-0.04578 0.655675,-0.07227 0.118621,-0.02648 0.186779,-0.04725 0.241975,-0.06445 0.110392,-0.0344 0.163037,-0.05523 0.206849,-0.07227 0.08762,-0.03406 0.127457,-0.05239 0.167822,-0.07031 0.08073,-0.03585 0.141773,-0.06553 0.208801,-0.09766 0.134057,-0.06425 0.283314,-0.137369 0.44102,-0.216797 0.31541,-0.158855 0.566395,-0.281361 0.89765,-0.474609 0.968741,-0.599507 1.867479,-1.294851 2.655876,-2.052776 l 0.002,-0.002 0.002,-0.002 C 20.092139,16.333239 21.432031,12.344934 21.964133,8.0955611 22.095876,7.3233277 21.828415,6.4927276 21.745585,6.093608 21.41839,5.1059372 20.737415,4.7365652 19.971643,4.2675781 19.639857,4.0846925 19.286117,3.9085987 18.896414,3.7441406 17.657069,3.2211226 16.293283,2.8858019 14.829668,2.6914062 13.755923,2.5487935 12.605555,2.4913813 11.467382,2.5019531 11.397779,2.5014214 11.327158,2.4999554 11.25663,2.5 Z"/>
 <path style="fill:#e4e4e4" d="M 11.25663,2 C 10.205868,2.0008151 9.1530628,2.0599925 8.163638,2.1914062 6.7000236,2.3858019 5.3362371,2.7211243 4.0968918,3.2441406 3.7071886,3.4085997 3.3534449,3.5846939 3.0216628,3.7675781 2.0221353,4.3176356 1.5001911,4.9597818 1.2478278,5.59375 1.0331365,6.1461795 1.0878667,6.1522416 1.074152,6.2402344 1.060437,6.3282274 1.055612,6.3779239 1.050735,6.4238281 1.040985,6.5156361 1.036237,6.5820067 1.031221,6.6542969 1.02119,6.7988771 1.013647,6.9517686 1.007805,7.1171875 L 1,7.3574219 1.0292712,7.5957031 c 0.073091,0.5837135 0.1635714,1.1574961 0.2673437,1.7246094 0.7896691,3.0607495 2.4037378,6.7321515 4.0491826,8.7499955 0.6380924,0.753913 1.0879157,1.216905 1.9455595,1.876954 0.8203721,0.631365 1.6376317,1.123531 2.6441656,1.599609 0.1088654,0.05149 0.2070444,0.09697 0.2946644,0.136719 0.04381,0.01988 0.08207,0.03794 0.134648,0.06055 0.02629,0.01131 0.05252,0.02114 0.113181,0.04492 0.03033,0.01189 0.06671,0.02611 0.15221,0.05469 0.04275,0.01429 0.09416,0.03295 0.200996,0.06055 0.05342,0.0138 0.226159,0.04879 0.226364,0.04883 2.04e-4,3.6e-5 0.524802,0.04687 0.524931,0.04687 6.32e-4,0 0.537053,-0.04578 0.655675,-0.07227 0.118621,-0.02648 0.186779,-0.04725 0.241975,-0.06445 0.110392,-0.0344 0.163037,-0.05523 0.206849,-0.07227 0.08762,-0.03406 0.127457,-0.05239 0.167822,-0.07031 0.08073,-0.03585 0.141773,-0.06553 0.208801,-0.09766 0.134057,-0.06425 0.283314,-0.137369 0.44102,-0.216797 0.31541,-0.158855 0.566395,-0.281361 0.89765,-0.474609 0.968741,-0.599507 1.867479,-1.294851 2.655876,-2.052776 l 0.002,-0.002 0.002,-0.002 C 20.092139,15.833239 21.432031,11.844934 21.964133,7.5955611 22.095876,6.8233277 21.828415,5.9927276 21.745585,5.593608 21.41839,4.6059372 20.737415,4.2365652 19.971643,3.7675781 19.639857,3.5846925 19.286117,3.4085987 18.896414,3.2441406 17.657069,2.7211226 16.293283,2.3858019 14.829668,2.1914062 13.755923,2.0487935 12.605555,1.9913813 11.467382,2.0019531 11.397779,2.0014214 11.327158,1.9999554 11.25663,2 Z"/>
 <path style="opacity:0.2" d="M 11.262418,5.500001 C 10.328097,5.5007251 9.3835163,5.5562839 8.5579168,5.6658426 7.3083528,5.8316629 6.1840374,6.1189685 5.2597544,6.5086836 4.7372114,6.7290093 4.0709933,7.0959237 4.037618,7.1817519 4.026447,7.2104712 4.009519,7.4542276 4,7.7234519 4.070641,8.2871068 4.1551967,8.8365025 4.2552111,9.371666 c 0.047083,0.3313906 0.1845034,0.999157 0.3191983,1.517855 0.1897265,0.73063 0.3127675,0.984314 0.6241605,1.286997 0.188842,0.183561 0.332593,0.281211 0.6166745,0.418879 0.4107515,0.199053 0.8928045,0.32982 1.7661194,0.479098 0.5395405,0.09223 1.051465,0.212254 1.477976,0.346577 2.7073402,0.852643 5.0905472,2.770888 5.2087052,4.192459 0.008,0.09656 0.01934,0.190389 0.02515,0.208537 0.01551,0.04843 0.185683,-0.09899 0.65289,-0.565643 2.432247,-2.439469 3.567571,-5.652477 4.053909,-9.5329731 -0.0095,-0.2692243 -0.02645,-0.5129788 -0.03762,-0.5417 -0.03337,-0.085829 -0.699592,-0.4527426 -1.222138,-0.6730683 -0.92428,-0.3897151 -2.048595,-0.6770207 -3.29816,-0.842841 -0.895842,-0.1188798 -1.931689,-0.174105 -2.9426,-0.1647235 -0.07891,-7.724e-4 -0.157924,-0.00116 -0.237065,-0.00111 z m -4.5480706,8.478962 c -0.165539,-0.0013 -0.293766,0.0077 -0.3651135,0.02824 -0.061704,0.01775 -0.1505245,0.07005 -0.198269,0.116728 -0.1318825,0.128951 -0.1112755,0.242949 0.108871,0.602424 0.4023955,0.657064 0.8971204,1.343633 1.3732714,1.905722 0.293321,0.346258 1.168472,1.191807 1.487123,1.436828 0.7064197,0.54319 1.1953577,0.837849 2.0987057,1.264747 0.193594,0.09149 0.358734,0.166347 0.366957,0.166347 0.04055,0 1.05495,-0.510456 1.310983,-0.65969 0.448368,-0.26134 0.79245,-0.491996 0.880958,-0.590561 0.04403,-0.04904 0.108914,-0.150581 0.144165,-0.225666 0.125248,-0.266787 0.07245,-0.62322 -0.145825,-0.984125 -0.754164,-1.246954 -3.16127,-2.492863 -5.6358882,-2.917146 -0.51699,-0.08864 -1.061753,-0.141069 -1.4259384,-0.143845 z"/>
 <path style="opacity:0.2;fill:#ffffff" d="M 11.255859 2 C 10.205097 2.0008151 9.1534873 2.0599926 8.1640625 2.1914062 C 6.7004481 2.385802 5.3370016 2.7211243 4.0976562 3.2441406 C 3.707953 3.4085997 3.3532665 3.5846939 3.0214844 3.7675781 C 2.0219569 4.3176356 1.5004102 4.9597818 1.2480469 5.59375 C 1.0333556 6.1461795 1.0879335 6.1522416 1.0742188 6.2402344 C 1.0605038 6.3282274 1.0556583 6.3779239 1.0507812 6.4238281 C 1.0410313 6.5156361 1.036266 6.5820067 1.03125 6.6542969 C 1.021219 6.7988771 1.0136545 6.9517686 1.0078125 7.1171875 L 1 7.3574219 L 1.015625 7.4785156 C 1.0204798 7.3676599 1.0242249 7.2555515 1.03125 7.1542969 C 1.036266 7.0820067 1.0410313 7.0156361 1.0507812 6.9238281 C 1.0556583 6.8779239 1.0605038 6.8282274 1.0742188 6.7402344 C 1.0879335 6.6522416 1.0333556 6.6461795 1.2480469 6.09375 C 1.5004102 5.4597818 2.0219569 4.8176356 3.0214844 4.2675781 C 3.3532665 4.0846939 3.707953 3.9085997 4.0976562 3.7441406 C 5.3370016 3.2211243 6.7004481 2.885802 8.1640625 2.6914062 C 9.1534873 2.5599926 10.205097 2.5008151 11.255859 2.5 C 11.326387 2.4999554 11.397194 2.5014214 11.466797 2.5019531 C 12.60497 2.4913813 13.756333 2.5487936 14.830078 2.6914062 C 16.293693 2.885802 17.657139 3.2211226 18.896484 3.7441406 C 19.286187 3.9085987 19.638917 4.0846925 19.970703 4.2675781 C 20.736475 4.7365652 21.418899 5.1060792 21.746094 6.09375 C 21.801986 6.3630714 21.933871 6.8339508 21.978516 7.3457031 C 22.025602 6.6502359 21.82003 5.9500169 21.746094 5.59375 C 21.418899 4.6060792 20.736475 4.2365652 19.970703 3.7675781 C 19.638917 3.5846925 19.286187 3.4085987 18.896484 3.2441406 C 17.657139 2.7211226 16.293693 2.385802 14.830078 2.1914062 C 13.756333 2.0487936 12.60497 1.9913813 11.466797 2.0019531 C 11.397194 2.0014214 11.326387 1.9999554 11.255859 2 z"/>
 <path style="fill:#0087db" d="M 11.262418,5.000001 C 10.328097,5.0007251 9.3835163,5.0562839 8.5579168,5.1658426 7.3083528,5.3316629 6.1840374,5.6189685 5.2597544,6.0086836 4.7372114,6.2290093 4.0709933,6.5959237 4.037618,6.6817519 4.026447,6.7104712 4.009519,6.9542276 4,7.2234519 4.070641,7.7871068 4.1551967,8.3365025 4.2552111,8.871666 c 0.047083,0.3313906 0.1845034,0.999157 0.3191983,1.517855 0.1897265,0.73063 0.3127675,0.984314 0.6241605,1.286997 0.188842,0.183561 0.332593,0.281211 0.6166745,0.418879 0.4107515,0.199053 0.8928045,0.32982 1.7661194,0.479098 0.5395405,0.09223 1.051465,0.212254 1.477976,0.346577 2.7073402,0.852643 5.0905472,2.770888 5.2087052,4.192459 0.008,0.09656 0.01934,0.190389 0.02515,0.208537 0.01551,0.04843 0.185683,-0.09899 0.65289,-0.565643 2.432247,-2.439469 3.567571,-5.652477 4.053909,-9.5329731 -0.0095,-0.2692243 -0.02645,-0.5129788 -0.03762,-0.5417 -0.03337,-0.085829 -0.699592,-0.4527426 -1.222138,-0.6730683 -0.92428,-0.3897151 -2.048595,-0.6770207 -3.29816,-0.842841 -0.895842,-0.1188798 -1.931689,-0.174105 -2.9426,-0.1647235 -0.07891,-7.724e-4 -0.157924,-0.00116 -0.237065,-0.00111 z m -4.5480706,8.478962 c -0.165539,-0.0013 -0.293766,0.0077 -0.3651135,0.02824 -0.061704,0.01775 -0.1505245,0.07005 -0.198269,0.116728 -0.1318825,0.128951 -0.1112755,0.242949 0.108871,0.602424 0.4023955,0.657064 0.8971204,1.343633 1.3732714,1.905722 0.293321,0.346258 1.168472,1.191807 1.487123,1.436828 0.7064197,0.54319 1.1953577,0.837849 2.0987057,1.264747 0.193594,0.09149 0.358734,0.166347 0.366957,0.166347 0.04055,0 1.05495,-0.510456 1.310983,-0.65969 0.448368,-0.26134 0.79245,-0.491996 0.880958,-0.590561 0.04403,-0.04904 0.108914,-0.150581 0.144165,-0.225666 0.125248,-0.266787 0.07245,-0.62322 -0.145825,-0.984125 -0.754164,-1.246954 -3.16127,-2.492863 -5.6358882,-2.917146 -0.51699,-0.08864 -1.061753,-0.141069 -1.4259384,-0.143845 z"/>
 <circle style="opacity:0.2" cx="5" cy="6.5" r="4"/>
 <circle style="fill:#e6e6e6" cx="5" cy="6" r="4"/>
 <circle style="opacity:0.2" cx="5" cy="6.5" r="2"/>
 <circle style="fill:#4f4f4f" cx="5" cy="6" r="2"/>
 <path style="opacity:0.2;fill:#ffffff" d="M 5 2 A 4 4 0 0 0 1 6 A 4 4 0 0 0 1.0097656 6.2832031 A 4 4 0 0 1 5 2.5 A 4 4 0 0 1 8.9902344 6.2109375 A 4 4 0 0 0 9 6 A 4 4 0 0 0 5 2 z"/>
</svg>

<svg xmlns="http://www.w3.org/2000/svg" width="24" height="24" version="1"><path style="opacity:.2" d="M11.257 2.5c-1.051 0-2.104.06-3.093.191-1.464.195-2.828.53-4.067 1.053-.39.165-.744.34-1.075.524-1 .55-1.522 1.192-1.774 1.826-.215.552-.16.558-.174.646-.014.088-.018.138-.023.184a13.66 13.66 0 0 0-.043.693L1 7.857l.03.239a30.9 30.9 0 0 0 .267 1.724c.79 3.061 2.403 6.732 4.049 8.75.638.754 1.088 1.217 1.945 1.877.82.632 1.638 1.124 2.645 1.6l.294.137c.044.02.082.038.135.06l.113.045c.03.012.067.026.152.055.043.014.094.033.201.06.054.014.226.05.227.05l.525.046s.537-.046.655-.072a2.74 2.74 0 0 0 .242-.065c.11-.034.163-.055.207-.072.088-.034.127-.052.168-.07.08-.036.142-.066.209-.098.134-.064.283-.137.44-.217.316-.159.567-.281.898-.474.97-.6 1.868-1.295 2.656-2.053l.002-.002.002-.002c3.03-3.042 4.37-7.03 4.902-11.28.132-.772-.136-1.602-.218-2.001-.328-.988-1.009-1.357-1.774-1.826a11.371 11.371 0 0 0-1.076-.524c-1.239-.523-2.603-.858-4.066-1.053a24.17 24.17 0 0 0-3.363-.189l-.21-.002z"/><path style="fill:#e4e4e4" d="M11.257 2c-1.051 0-2.104.06-3.093.191-1.464.195-2.828.53-4.067 1.053-.39.165-.744.34-1.075.524-1 .55-1.522 1.192-1.774 1.826-.215.552-.16.558-.174.646-.014.088-.018.138-.023.184a13.66 13.66 0 0 0-.043.693L1 7.357l.03.239a30.9 30.9 0 0 0 .267 1.724c.79 3.061 2.403 6.732 4.049 8.75.638.754 1.088 1.217 1.945 1.877.82.632 1.638 1.124 2.645 1.6l.294.137c.044.02.082.038.135.06l.113.045c.03.012.067.026.152.055.043.014.094.033.201.06.054.014.226.05.227.05l.525.046s.537-.046.655-.072a2.74 2.74 0 0 0 .242-.065c.11-.034.163-.055.207-.072.088-.034.127-.052.168-.07.08-.036.142-.066.209-.098.134-.064.283-.137.44-.217.316-.159.567-.281.898-.474.97-.6 1.868-1.295 2.656-2.053l.002-.002.002-.002c3.03-3.042 4.37-7.03 4.902-11.28.132-.772-.136-1.602-.218-2.001-.328-.988-1.009-1.357-1.774-1.826a11.371 11.371 0 0 0-1.076-.524c-1.239-.523-2.603-.858-4.066-1.053a24.17 24.17 0 0 0-3.363-.189L11.257 2z"/><path style="opacity:.2" d="M11.262 5.5c-.934 0-1.878.056-2.704.166-1.25.166-2.374.453-3.298.843-.523.22-1.189.587-1.222.673A4.783 4.783 0 0 0 4 7.723c.07.564.155 1.114.255 1.649.047.331.185.999.32 1.518.19.73.312.984.624 1.287.188.183.332.28.616.418.411.2.893.33 1.766.48.54.092 1.052.212 1.478.346 2.708.853 5.09 2.771 5.209 4.193.008.096.02.19.025.208.016.048.186-.099.653-.566 2.432-2.439 3.568-5.652 4.054-9.533a4.778 4.778 0 0 0-.038-.541c-.033-.086-.7-.453-1.222-.673-.924-.39-2.048-.677-3.298-.843A21.537 21.537 0 0 0 11.5 5.5l-.237-.001zm-4.548 8.479a1.49 1.49 0 0 0-.365.028.557.557 0 0 0-.198.117c-.132.129-.111.243.109.602.402.657.897 1.344 1.373 1.906.293.346 1.169 1.192 1.487 1.437.707.543 1.196.838 2.099 1.265.194.091.359.166.367.166.04 0 1.055-.51 1.31-.66.45-.261.793-.492.882-.59.044-.05.109-.15.144-.226.125-.267.072-.623-.146-.984-.754-1.247-3.161-2.493-5.636-2.917a9.712 9.712 0 0 0-1.426-.144z"/><path style="opacity:.2;fill:#fff" d="M11.256 2c-1.05 0-2.103.06-3.092.191-1.464.195-2.827.53-4.066 1.053-.39.165-.745.34-1.077.524-.999.55-1.52 1.192-1.773 1.826-.215.552-.16.558-.174.646-.013.088-.018.138-.023.184a13.658 13.658 0 0 0-.043.693L1 7.357l.016.122c.004-.111.008-.223.015-.325.005-.072.01-.138.02-.23.005-.046.01-.096.023-.184.014-.088-.04-.094.174-.646.252-.634.774-1.276 1.773-1.826.332-.183.687-.36 1.077-.524 1.239-.523 2.602-.858 4.066-1.053.99-.131 2.041-.19 3.092-.191l.21.002c1.139-.01 2.29.047 3.364.19 1.464.194 2.827.53 4.066 1.052.39.165.743.34 1.075.524.765.469 1.448.838 1.775 1.826.056.27.188.74.233 1.252.047-.696-.159-1.396-.233-1.752-.327-.988-1.01-1.357-1.775-1.826a11.35 11.35 0 0 0-1.075-.524c-1.239-.523-2.602-.858-4.066-1.053a24.185 24.185 0 0 0-3.363-.189L11.256 2z"/><path style="fill:#0087db" d="M11.262 5c-.934 0-1.878.056-2.704.166-1.25.166-2.374.453-3.298.843-.523.22-1.189.587-1.222.673A4.783 4.783 0 0 0 4 7.223c.07.564.155 1.114.255 1.649.047.331.185.999.32 1.518.19.73.312.984.624 1.287.188.183.332.28.616.418.411.2.893.33 1.766.48.54.092 1.052.212 1.478.346 2.708.853 5.09 2.771 5.209 4.193.008.096.02.19.025.208.016.048.186-.099.653-.566 2.432-2.439 3.568-5.652 4.054-9.533a4.778 4.778 0 0 0-.038-.541c-.033-.086-.7-.453-1.222-.673-.924-.39-2.048-.677-3.298-.843A21.537 21.537 0 0 0 11.5 5L11.262 5zm-4.548 8.479a1.49 1.49 0 0 0-.365.028.557.557 0 0 0-.198.117c-.132.129-.111.243.109.602.402.657.897 1.344 1.373 1.906.293.346 1.169 1.192 1.487 1.437.707.543 1.196.838 2.099 1.265.194.091.359.166.367.166.04 0 1.055-.51 1.31-.66.45-.261.793-.492.882-.59.044-.05.109-.15.144-.226.125-.267.072-.623-.146-.984-.754-1.247-3.161-2.493-5.636-2.917a9.712 9.712 0 0 0-1.426-.144z"/><circle style="opacity:.2" cx="5" cy="6.5" r="4"/><circle style="fill:#e6e6e6" cx="5" cy="6" r="4"/><circle style="opacity:.2" cx="5" cy="6.5" r="2"/><circle style="fill:#4f4f4f" cx="5" cy="6" r="2"/><path style="opacity:.2;fill:#fff" d="M5 2a4 4 0 0 0-4 4 4 4 0 0 0 .01.283A4 4 0 0 1 5 2.5a4 4 0 0 1 3.99 3.71A4 4 0 0 0 9 6a4 4 0 0 0-4-4z"/></svg>
